X: 1
T: Celebrat:ed Stop -- Hornpipe
B: Ryan's Mammoth Collection of Fiddle Tunes
R: hornpipe
M: 2/4
L: 1/16
Z: Contributed 20000504154544 by Bob Safranek rjs:gsp.org
K: Bb
(uFE) | DdcB Agfe | gf "<>"d4 f2 | (fe)(ed) (dc)(cB) | Bd "<>"F4 (FE) |
DdcB Agfe | gf "<>"d4 (fg) | fecA .F1(GA) B2d2B2 :|
|: vbg | fdBF dFBd | ecAF EFCE | DFBA GBed | c=Bcd .c2(ub>g) |
fdBF DFBd | ecAF EFCE | DFBF GecA | B2d2B2 :|
